components/Common/Svg/svgs/iosDevelopment.svg

<svg
  width="40"
  height="38"
  viewBox="0 0 40 38"
  fill="none"
  xmlns="http://www.w3.org/2000/svg"
>
  <path
    d="M26.668 5.55574V30.0002C26.668 31.2275 25.673 32.2224 24.4457 32.2224H11.1124C9.88511 32.2224 8.89019 31.2275 8.89019 30.0002V5.55574C8.89019 4.32845 9.88511 3.33352 11.1124 3.33352H24.4457C25.673 3.33352 26.668 4.32845 26.668 5.55574Z"
    stroke="#161616"
    stroke-width="2"
    stroke-linecap="round"
    stroke-linejoin="round"
  ></path>
  <path
    d="M17.776 25.5556C18.6965 25.5556 19.4427 26.3018 19.4427 27.2222C19.4427 28.1427 18.6965 28.8889 17.776 28.8889C16.8556 28.8889 16.1094 28.1427 16.1094 27.2222C16.1094 26.3018 16.8556 25.5556 17.776 25.5556Z"
    fill="#161616"
  ></path>
  <path
    d="M29.5997 21.2273L28.1256 20.122C28.0465 20.0625 27.9544 20.0226 27.8568 20.0057C27.7593 19.9888 27.6592 19.9953 27.5647 20.0246C27.1081 20.1676 26.6651 20.3509 26.241 20.5723C26.1532 20.6183 26.0776 20.6846 26.0205 20.7656C25.9634 20.8467 25.9263 20.9401 25.9124 21.0383L25.6518 22.8626C25.5525 22.9506 25.4552 23.0422 25.3601 23.1373C25.2649 23.2324 25.1733 23.3297 25.0853 23.4291L25.0852 23.4292L23.2612 23.69C23.1632 23.7039 23.0699 23.7408 22.989 23.7978C22.9081 23.8548 22.8419 23.9302 22.7958 24.0178C22.5741 24.4417 22.3904 24.8845 22.2471 25.341C22.2176 25.4356 22.211 25.536 22.2279 25.6336C22.2448 25.7313 22.2847 25.8236 22.3442 25.9029L23.4499 27.3771C23.4419 27.5096 23.4379 27.6431 23.4379 27.7777C23.4379 27.9122 23.4419 28.0458 23.4499 28.1783L23.4499 28.1784L22.3446 29.6526C22.2851 29.7317 22.2453 29.8238 22.2283 29.9213C22.2114 30.0188 22.2179 30.119 22.2473 30.2135C22.3903 30.67 22.5735 31.113 22.795 31.5371C22.841 31.6249 22.9073 31.7005 22.9883 31.7576C23.0693 31.8148 23.1628 31.8518 23.2609 31.8657L25.0852 32.1263C25.1733 32.2257 25.2648 32.3229 25.36 32.4181C25.4551 32.5132 25.5524 32.6048 25.6518 32.6929L25.6518 32.6929L25.9127 34.5169C25.9265 34.6149 25.9635 34.7082 26.0204 34.7891C26.0774 34.8701 26.1528 34.9363 26.2405 34.9823C26.6644 35.2041 27.1072 35.3877 27.5637 35.531C27.6583 35.5606 27.7586 35.5671 27.8563 35.5503C27.954 35.5334 28.0463 35.4935 28.1255 35.4339L29.5997 34.3282C29.7322 34.3362 29.8658 34.3402 30.0003 34.3402C30.1349 34.3402 30.2684 34.3362 30.401 34.3282L30.4011 34.3282L31.8752 35.4335C31.9543 35.493 32.0464 35.5329 32.144 35.5498C32.2415 35.5667 32.3416 35.5602 32.4361 35.5308C32.8927 35.3879 33.3357 35.2046 33.7598 34.9832C33.8476 34.9371 33.9232 34.8709 33.9803 34.7899C34.0374 34.7088 34.0745 34.6154 34.0884 34.5172L34.349 32.6929C34.4483 32.6049 34.5456 32.5133 34.6407 32.4182C34.7359 32.3231 34.8275 32.2258 34.9156 32.1264L34.9156 32.1263L36.7396 31.8655C36.8376 31.8516 36.9309 31.8147 37.0118 31.7577C37.0927 31.7007 37.1589 31.6253 37.205 31.5377C37.4267 31.1137 37.6104 30.6709 37.7537 30.2145C37.7832 30.1198 37.7898 30.0195 37.7729 29.9218C37.756 29.8242 37.7161 29.7319 37.6566 29.6526L36.5509 28.1784C36.5589 28.0459 36.5629 27.9124 36.5629 27.7778C36.5629 27.6433 36.5589 27.5097 36.5509 27.3771L36.5509 27.3771L37.6562 25.9029C37.7157 25.8238 37.7555 25.7317 37.7725 25.6342C37.7894 25.5367 37.7829 25.4365 37.7535 25.342C37.6105 24.8854 37.4273 24.4425 37.2059 24.0184C37.1598 23.9306 37.0935 23.855 37.0125 23.7979C36.9315 23.7407 36.838 23.7037 36.7399 23.6898L34.9156 23.4292C34.8275 23.3298 34.736 23.2326 34.6408 23.1374C34.5457 23.0423 34.4484 22.9507 34.349 22.8626L34.349 22.8626L34.0882 21.0386C34.0743 20.9406 34.0373 20.8473 33.9804 20.7664C33.9234 20.6854 33.848 20.6192 33.7603 20.5732C33.3364 20.3514 32.8936 20.1678 32.4371 20.0244C32.3425 19.9949 32.2422 19.9883 32.1445 20.0052C32.0468 20.0221 31.9545 20.062 31.8753 20.1216L30.4011 21.2273C30.2685 21.2193 30.135 21.2153 30.0005 21.2152C29.8659 21.2152 29.7324 21.2193 29.5998 21.2273L29.5997 21.2273Z"
    fill="#FFF281"
    stroke="#161616"
    stroke-width="2"
    stroke-linecap="round"
    stroke-linejoin="round"
  ></path>
  <path
    d="M30 31.5278C32.0711 31.5278 33.75 29.8489 33.75 27.7778C33.75 25.7068 32.0711 24.0278 30 24.0278C27.9289 24.0278 26.25 25.7068 26.25 27.7778C26.25 29.8489 27.9289 31.5278 30 31.5278Z"
    stroke="#161616"
    stroke-width="2"
    stroke-linecap="round"
    stroke-linejoin="round"
  ></path>
</svg>

<svg width="40" height="38" viewBox="0 0 40 38" fill="none" xmlns="http://www.w3.org/2000/svg"><path d="M26.668 5.556V30a2.222 2.222 0 0 1-2.222 2.222H11.112A2.222 2.222 0 0 1 8.89 30V5.556c0-1.228.995-2.222 2.222-2.222h13.334c1.227 0 2.222.994 2.222 2.222Z" stroke="#161616" stroke-width="2" stroke-linecap="round" stroke-linejoin="round"/><path d="M17.776 25.556a1.667 1.667 0 1 1 0 3.333 1.667 1.667 0 0 1 0-3.333Z" fill="#161616"/><path d="m29.6 21.227-1.474-1.105a.624.624 0 0 0-.561-.097c-.457.143-.9.326-1.324.547a.624.624 0 0 0-.329.466l-.26 1.825a6.65 6.65 0 0 0-.567.566h0l-1.824.261a.625.625 0 0 0-.465.328 8.071 8.071 0 0 0-.549 1.323.625.625 0 0 0 .097.562l1.106 1.474a6.645 6.645 0 0 0 0 .801h0l-1.105 1.475a.626.626 0 0 0-.098.56c.143.457.326.9.548 1.324a.624.624 0 0 0 .466.329l1.824.26a6.656 6.656 0 0 0 .567.567h0l.26 1.824a.625.625 0 0 0 .329.465c.423.222.866.406 1.323.549a.625.625 0 0 0 .561-.097l1.475-1.106a6.647 6.647 0 0 0 .801 0h0l1.474 1.105a.624.624 0 0 0 .561.098c.457-.143.9-.326 1.324-.548a.625.625 0 0 0 .328-.466l.261-1.824a6.65 6.65 0 0 0 .567-.567h0l1.824-.26a.625.625 0 0 0 .465-.328c.222-.424.405-.867.549-1.323a.626.626 0 0 0-.097-.562l-1.106-1.475a6.645 6.645 0 0 0 0-.8h0l1.105-1.475a.626.626 0 0 0 .098-.561 8.075 8.075 0 0 0-.548-1.324.626.626 0 0 0-.466-.328l-1.824-.26a6.656 6.656 0 0 0-.567-.567h0l-.26-1.824a.626.626 0 0 0-.329-.466 8.072 8.072 0 0 0-1.323-.549.625.625 0 0 0-.562.098l-1.474 1.105a6.733 6.733 0 0 0-.801 0h0Z" fill="#FFF281" stroke="#161616" stroke-width="2" stroke-linecap="round" stroke-linejoin="round"/><path d="M30 31.528a3.75 3.75 0 1 0 0-7.5 3.75 3.75 0 0 0 0 7.5Z" stroke="#161616" stroke-width="2" stroke-linecap="round" stroke-linejoin="round"/></svg>
